matrix.svg

<svg height="32" viewBox="0 0 28 32" width="28" xmlns="http://www.w3.org/2000/svg"><g fill="#fff"><path d="m27.005 31.205v-30.5h-2.19v-.732h3.04v32h-3.04v-.732z"/><path d="m8.135 10.405v1.54h.044c.385-.564.893-1.03 1.49-1.37.58-.323 1.25-.485 1.99-.485.72 0 1.38.14 1.97.42.595.279 1.05.771 1.36 1.48.338-.5.796-.941 1.38-1.32.58-.383 1.27-.574 2.06-.574.602 0 1.16.074 1.67.22.514.148.954.383 1.32.707.366.323.653.746.859 1.27.205.522.308 1.15.308 1.89v7.63h-3.13v-6.46c0-.383-.015-.743-.044-1.08-.021-.307-.103-.607-.242-.882-.133-.251-.336-.458-.584-.596-.257-.146-.606-.22-1.05-.22-.44 0-.796.085-1.07.253-.272.17-.485.39-.639.662-.159.287-.264.602-.308.927-.052.347-.078.697-.078 1.05v6.35h-3.13v-6.4c0-.338-.007-.673-.021-1-.011-.314-.075-.623-.188-.916-.108-.277-.3-.512-.55-.673-.258-.168-.636-.253-1.14-.253-.198.008-.394.042-.584.1-.258.075-.498.202-.705.374-.228.184-.422.449-.584.794-.161.346-.242.798-.242 1.36v6.62h-3.13v-11.4z"/><path d="m.841.737v30.5h2.19v.732h-3.04v-32h3.03v.732z"/></g></svg>

<?xml version="1.0" encoding="UTF-8"?>
<svg width="28px" height="32px" viewBox="0 0 28 32" xmlns="http://www.w3.org/2000/svg" xmlns:xlink="http://www.w3.org/1999/xlink" version="1.1">
 <!-- Generated by Pixelmator Pro 2.1.4 -->
 <g id="group">
  <path id="Path" d="M27.005 31.205 L27.005 0.705 24.815 0.705 24.815 -0.027 27.855 -0.027 27.855 31.973 24.815 31.973 24.815 31.241 Z" fill="#ffffff" fill-opacity="1" stroke="none"/>
  <path id="Path-1" d="M8.135 10.405 L8.135 11.945 8.179 11.945 C8.564 11.381 9.072 10.915 9.669 10.575 10.249 10.252 10.919 10.09 11.659 10.09 12.379 10.09 13.039 10.23 13.629 10.51 14.224 10.789 14.679 11.281 14.989 11.99 15.327 11.49 15.785 11.049 16.369 10.67 16.949 10.287 17.639 10.096 18.429 10.096 19.031 10.096 19.589 10.17 20.099 10.316 20.613 10.464 21.053 10.699 21.419 11.023 21.785 11.346 22.072 11.769 22.278 12.293 22.483 12.815 22.586 13.443 22.586 14.183 L22.586 21.813 19.456 21.813 19.456 15.353 C19.456 14.97 19.441 14.61 19.412 14.273 19.391 13.966 19.309 13.666 19.17 13.391 19.037 13.14 18.834 12.933 18.586 12.795 18.329 12.649 17.98 12.575 17.536 12.575 17.096 12.575 16.74 12.66 16.466 12.828 16.194 12.998 15.981 13.218 15.827 13.49 15.668 13.777 15.563 14.092 15.519 14.417 15.467 14.764 15.441 15.114 15.441 15.467 L15.441 21.817 12.311 21.817 12.311 15.417 C12.311 15.079 12.304 14.744 12.29 14.417 12.279 14.103 12.215 13.794 12.102 13.501 11.994 13.224 11.802 12.989 11.552 12.828 11.294 12.66 10.916 12.575 10.412 12.575 10.214 12.583 10.018 12.617 9.828 12.675 9.57 12.75 9.33 12.877 9.123 13.049 8.895 13.233 8.701 13.498 8.539 13.843 8.378 14.189 8.297 14.641 8.297 15.203 L8.297 21.823 5.167 21.823 5.167 10.423 Z" fill="#ffffff" fill-opacity="1" stroke="none"/>
  <path id="Path-2" d="M0.841 0.737 L0.841 31.237 3.031 31.237 3.031 31.969 -0.009 31.969 -0.009 -0.031 3.021 -0.031 3.021 0.701 Z" fill="#ffffff" fill-opacity="1" stroke="none"/>
 </g>
</svg>
